X: 1
T: Brigit O'Malley
T: Bridget O'Malley
M: 3/4
L: 1/8
S: Ottawa Celtic Jam <ottawajam@yahoo.ca> 2002-5-2
K: G Major
DE \
| G3 ABc | d B3 d | e3 dBA | G E3 ef | g3 fef | ed B2 A2 | B2 e3 f | e4 ef |
| g3 fef | ed B2 Bc | d3 BAB | G2 E2 EF | G2 e2 de | B2 A2 BA | G2 E2 F2 | G4 :|
